!!!COM: Grieg, Edvard
!!!CDT: 1843/06/15/-1907/09/04/
!!!OPR: Lyric Pices, Op. 12
!!!OPS: Op. 12
!!!ONM: No. 2
!!!OTL: Waltz
!!!OMD: Allegro moderato
**kern	**kern	**dynam
*staff2	*staff1	*staff1/2
*clefF4	*clefG2	*clefG2
*k[]	*k[]	*k[]
*a:	*a:	*a:
*M3/4	*M3/4	*M3/4
*MM144	*MM144	*MM144
=1-	=1-	=1-
(4AA/	2.r	.
4E\ 4c\)	.	.
4E\ 4c\	.	.
=2	=2	=2
(4AA/	2.r	.
4E\ 4c\)	.	.
4E\ 4c\	.	.
=3	=3	=3
(4AA/	4e/	p
4E\ 4c\)	8f#'/L	.
.	8g#'/J	.
4E\ 4c\	4a'/	.
=4	=4	=4
(4AA/	4a/	.
4E\ 4d\)	8b'/L	.
.	8g#'/J	.
4E\ 4d\	4f#'/	.
=5	=5	=5
.	(aq/	.
(4AA/	4f#'/)	.
4E\ 4c\)	[2e/	.
4E\ 4c\	.	.
=6	=6	=6
(4AA/	4e/]	.
4E\ 4c\)	4r	.
4E\ 4c\	4r	.
=7	=7	=7
(4AA/	8r	.
.	8e'/L	.
4E\ 4c\)	8f#'/	.
.	8g#'/	.
4E\ 4c\	(8g#/	.
.	8a/J)	.
=8	=8	=8
(4AA/	8r	.
.	8a'/L	.
4E\ 4d\)	8b'/	.
.	8g#'/	.
4E\ 4d\	(8g#/	.
.	8f#/J)	.
=9	=9	=9
.	(aq/	.
(4AA/	4f#'/)	.
4E\ 4c\)	[2e/	.
4E\ 4c\	.	.
=10	=10	=10
(4AA/	4e/]	.
4E\ 4c\)	4r	.
4E\ 4c\	4r	.
=11	=11	=11
4c'\ 4e'\	4g'\ 4ee'\	.
4c'\ 4f'\	4g#'\ 4ee'\	.
4c'\ 4f#'\	4a'\ 4ee'\	.
=12	=12	=12
*	*^	*
2.G\ 2.d\ 2.g\	12ee^/L	2.b\	.
.	12dd/	.	.
.	12cc/J	.	.
.	2dd/	.	.
*	*v	*v	*
=13	=13	=13
4A'\ 4c'\	4e'/ 4cc'/	.
4A'\ 4d'\	4f'/ 4cc'/	.
4A'\ 4d#'\	4f#'/ 4cc'/	.
=14	=14	=14
*	*^	*
2.E\ 2.B\ 2.e\	12cc^/L	2.g\	.
.	12b/	.	.
.	12a/J	.	.
.	2b/	.	.
=15	=15	=15	=15
2.F\ 2.c\	12b^/L	2.f\	<
.	12a/	.	.
.	12g/J	.	.
.	2a/	.	.
=16	=16	=16	=16
2.C\ 2.G\ 2.c\	2.g^/	12f\L	.
.	.	12e\	.
.	.	12d\J	.
.	.	2e\	.
*	*v	*v	*
=17	=17	=17
4D\ 4A\	4c/ 4f/	f
8E\ 8A\L	8c/ 8g/L	.
8F\ 8A\J	8c/ 8a/J	.
4D'\ 4A'\	4c'/ 4f'/	.
=18	=18	=18
4F'\ 4A'\	4B'/ 4d'/	.
2E\ 2G#\	2B;/ 2e;/	p
=19	=19	=19
(4AA/	2.r	.
4E\ 4c\)	.	.
4E\ 4c\	.	.
=20	=20	=20
(4AA/	2.r	.
4E\ 4c\)	.	.
4E\ 4c\	.	.
=21	=21	=21
(4AA/	4e/	.
4E\ 4c\)	8f#'/L	.
.	8g#'/J	.
4E\ 4c\	4a'/	.
=22	=22	=22
(4AA/	4a/	.
4E\ 4d\)	8b'/L	.
.	8g#'/J	.
4E\ 4d\	4f#'/	.
=23	=23	=23
.	(aq/	.
(4AA/	4f#'/)	.
4E\ 4c\)	[2e/	.
4E\ 4c\	.	.
=24	=24	=24
(4AA/	4e/]	.
4E\ 4c\)	4r	.
4E\ 4c\	4r	.
=25	=25	=25
(4AA/	8r	.
.	8e'/L	.
4E\ 4c\)	8f#'/	.
.	8g#'/	.
4E\ 4c\	(8g#/	.
.	8a/J)	.
=26	=26	=26
(4AA/	8r	.
.	8a'/L	.
4E\ 4d\)	8b'/	.
.	8g#'/	.
4E\ 4d\	(8g#/	.
.	8f#/J)	.
=27	=27	=27
.	(aq/	.
(4AA/	4f#'/)	.
4E\ 4c\)	[2e/	.
4E\ 4c\	.	.
=28	=28	=28
(4AA/	4e/]	.
4E\ 4c\)	4r	.
4E\ 4c\	4r	.
=29	=29	=29
4c'\ 4e'\	4g'\ 4ee'\	.
4c'\ 4f'\	4g#'\ 4ee'\	.
4c'\ 4f#'\	4a'\ 4ee'\	.
=30	=30	=30
*	*^	*
2.G\ 2.d\ 2.g\	12ee^/L	2.b\	.
.	12dd/	.	.
.	12cc/J	.	.
.	2dd/	.	.
*	*v	*v	*
=31	=31	=31
4A'\ 4c'\	4e'/ 4cc'/	.
4A'\ 4d'\	4f'/ 4cc'/	.
4A'\ 4d#'\	4f#'/ 4cc'/	.
=32	=32	=32
*	*^	*
2.E\ 2.B\ 2.e\	12cc^/L	2.g\	.
.	12b/	.	.
.	12a/J	.	.
.	2b/	.	.
=33	=33	=33	=33
2.F\ 2.c\	12b^/L	2.f\	<
.	12a/	.	.
.	12g/J	.	.
.	2a/	.	.
=34	=34	=34	=34
2.C\ 2.G\ 2.c\	2.g/	12f^\L	.
.	.	12e\	.
.	.	12d\J	.
.	.	2e\	.
*	*v	*v	*
=35	=35	=35
4D\ 4A\	4c/ 4f/	f
8E\ 8A\L	8c/ 8g/L	.
8F\ 8A\J	8c/ 8a/J	.
4D'\ 4A'\	4c'/ 4f'/	.
=36	=36	=36
4F'\ 4A'\	4B'/ 4d'/	.
2E;\ 2G#;\	2B;/ 2e;/	p
*clefG2	*	*
=37	=37	=37
*k[f#c#g#]	*k[f#c#g#]	*k[f#c#g#]
(2a/	4r	.
.	4cc#'\ (4ee'\	p
8b/L	4cc#'\ 4ee'\)	.
8g#/J)	.	.
=38	=38	=38
(g#q/	.	.
(8f#/L)	4r	.
8e'/J)	.	.
2e^/	4g#'\ 4dd'\ (4ee'\	.
.	4g#'\ 4dd'\ 4ee'\)	.
=39	=39	=39
(4a/	4r	.
8b/L	4cc#'\ (4ee'\	.
8cc#/	.	.
8a/	4cc#'\ 4ee'\)	.
8f#/J)	.	.
=40	=40	=40
(g#q/	.	.
(8f#/L)	4r	.
8e'/J)	.	.
2e^/	4g#'\ 4dd'\ (4ee'\	.
.	4g#'\ 4dd'\ 4ee'\)	.
=41	=41	=41
2a/	4r	.
.	4cc#'\ (4ee'\	.
(8e/L	4cc#'\ 4ee'\)	.
8f#/J)	.	.
=42	=42	=42
(8f#/L	4r	.
8g#/J)	.	.
2g#/	4cc#'\ (4ee'\	.
.	4cc#'\ 4ee'\)	.
=43	=43	=43
(8g#/L	4r	.
8b/)	.	.
8b/	4cc#'\ (4ee'\	<
8a/	.	.
(8e/	4cc#'\ 4ee'\)	.
8f#/J)	.	.
=44	=44	=44
(8f#/L	4r	.
8g#/J)	.	.
2g#^/	4cc#'\ (4ee'\	>
.	4cc#'\ 4ee'\)	.
=45	=45	=45
(2a/	4r	.
.	4cc#\ 4ee\	.
8b/L	4cc#\ 4ee\	.
8g#/J	.	.
=46	=46	=46
g#q/	.	.
&(8f#/L&)	4r	.
8e'/J)	.	.
2e^/	4g#\ 4dd\ 4ee\	.
.	4g#\ 4dd\ 4ee\	.
=47	=47	=47
(4a/	4r	.
8b/L	4cc#\ 4ee\	.
8cc#/	.	.
8a/	4cc#\ 4ee\	.
8f#/J	.	.
=48	=48	=48
g#q/	.	.
&(8f#/L&)	4r	.
8e'/J)	.	.
2e^/	4g#\ 4dd\ 4ee\	.
.	4g#\ 4dd\ 4ee\	.
=49	=49	=49
(2a/	4r	.
.	4cc#\ 4ee\	<
8e/L	4cc#\ 4ee\	.
8f#/J	.	.
=50	=50	=50
8f#/L	4r	.
8f##'/J)	.	.
2f##/	4cc#\ 4ee\	.
.	4cc#\ 4ee\	.
=51	=51	=51
(8f##/L	4r	.
8g#'/J)	.	.
2g#/	4cc#\ 4ee\	.
.	4cc#\ 4ee\	f
=52	=52	=52
(8g#/L	4r	.
8a'/J)	.	.
2a/	4cc#\ 4ee\	.
.	4cc#\ 4ee\	pp
*clefF4	*	*
=53	=53	=53
*k[]	*k[]	*k[]
(4AA/	2.r	.
4E\ 4c\)	.	.
4E\ 4c\	.	.
=54	=54	=54
(4AA/	2.r	.
4E\ 4c\)	.	.
4E\ 4c\	.	.
=55	=55	=55
(4AA/	4e/	.
4E\ 4c\)	8f#'/L	.
.	8g#'/J	.
4E\ 4c\	4a'/	.
=56	=56	=56
(4AA/	4a/	.
4E\ 4d\)	8b'/L	.
.	8g#'/J	.
4E\ 4d\	4f#'/	.
=57	=57	=57
.	(aq/	.
(4AA/	4f#'/)	.
4E\ 4c\)	[2e/	.
4E\ 4c\	.	.
=58	=58	=58
(4AA/	4e/]	.
4E\ 4c\)	4r	.
4E\ 4c\	4r	.
=59	=59	=59
(4AA/	8r	.
.	8e'/L	.
4E\ 4c\)	8f#'/	.
.	8g#'/	.
4E\ 4c\	(8g#/	.
.	8a/J)	.
=60	=60	=60
(4AA/	8r	.
.	8a'/L	.
4E\ 4d\)	8b'/	.
.	8g#'/	.
4E\ 4d\	(8g#/	.
.	8f#/J)	.
=61	=61	=61
.	(aq/	.
(4AA/	4f#'/)	.
4E\ 4c\)	[2e/	.
4E\ 4c\	.	.
=62	=62	=62
(4AA/	4e/]	.
4E\ 4c\)	4r	.
4E\ 4c\	4r	.
=63	=63	=63
4c'\ 4e'\	4g'\ 4ee'\	.
4c'\ 4f'\	4g#'\ 4ee'\	.
4c'\ 4f#'\	4a'\ 4ee'\	.
=64	=64	=64
*	*^	*
2.G\ 2.d\ 2.g\	12ee^/L	2.b\	.
.	12dd/	.	.
.	12cc/J	.	.
.	2dd/	.	.
*	*v	*v	*
=65	=65	=65
4A'\ 4c'\	4e'/ 4cc'/	.
4A'\ 4d'\	4f'/ 4cc'/	.
4A'\ 4d#'\	4f#'/ 4cc'/	.
=66	=66	=66
*	*^	*
2.E\ 2.B\ 2.e\	12cc^/L	2.g\	.
.	12b/	.	.
.	12a/J	.	<
.	2b/	.	.
=67	=67	=67	=67
2.F\ 2.c\	12b^/L	2.f\	.
.	12a/	.	.
.	12g/J	.	.
.	2a/	.	.
=68	=68	=68	=68
2.C\ 2.G\ 2.c\	2.g/	12f^\L	.
.	.	12e\	.
.	.	12d\J	.
.	.	2e\	.
*	*v	*v	*
=69	=69	=69
4D\ 4A\	4c/ 4f/	f
8E\ 8A\L	8c/ 8g/L	.
8F\ 8A\J	8c/ 8a/J	.
4D'\ 4A'\	4c'/ 4f'/	.
=70	=70	=70
4F'\ 4A'\	4B'/ 4d'/	.
2E;\ 2G#;\	2B;/ 2e;/	p
=71	=71	=71
*k[f#c#g#]	*k[f#c#g#]	*k[f#c#g#]
*	*^	*
[2.AA/ [2.E/	(2a/	2.c#\	p
.	8b/L	.	.
.	8g#/J	.	.
*	*v	*v	*
=72	=72	=72
.	g#q/	.
*	*^	*
2.AA/] 2.E/]	8f#/L	2.d\	.
.	8e/J	.	.
.	2e/)	.	.
=73	=73	=73	=73
[2.AA/ [2.E/	(4a/	2.c#\	.
.	8b/L	.	.
.	8cc#/	.	.
.	8a/	.	.
.	8f#/J	.	.
*	*v	*v	*
=74	=74	=74
.	g#q/	.
*	*^	*
2.AA/] 2.E/]	8f#/L	2.d\	.
.	8e/J	.	.
.	2e/)	.	.
*	*v	*v	*
=75	=75	=75
.	aq/	.
*	*^	*
[2.AA/ [2.E/	4f#/	[2.c#\	.
.	[2e/	.	.
=76	=76	=76	=76
4AA/] 4E/]	4e/]	4c#\]	.
4r	4r	4r	.
4r	4r	4r	.
*	*v	*v	*
=77	=77	=77
.	(aq/	.
*	*^	*
([2.AA/ [2.E/	4fn/)	[2.cn\	pp
.	[2e/	.	.
*	*v	*v	*
=78	=78	=78
2.AA/] 2.E/]	2.cn/] 2.e/]	.
=79	=79	=79
4AAA'/)	2.r	.
4r	.	.
4r	.	.
==	==	==
*-	*-	*-
!!!ENC: Craig Stuart Sapp
!!!END: 2008/07/16/
